!! 00047] TT[KA
!! NN
!!!OTL: Chutou ge
!!!ARE: Asia, China,ÿJiangsu, Nanjing
!! Ethnic Group: Han
!! III, 449
!!!SCT: C0321
!!!YEM: Copyright 1995, estate of Helmut Schaffrath.
**kern
*ICvox
*Ivox
!! Mixed meters:  2/4; 3/4
*M3/4
*k[b-e-]
*B-:
{8dd
16ff
16ff
8gg
8gg
=1
8bb-
8dd
4ff
4gg}
=2
*M2/4
{8bb-
8bb-
8bb-
8ddd
=3
*M3/4
8ccc
16bb-
16gg
8.bb-
16gg
4gg}
=4
*M2/4
{8gg
16gg
16bb-
4ccc
=5
16bb-
16ccc
8ddd
4ccc}
=6
*M3/4
{8bb-
8bb-
8ccc
8ff
4gg
=7
*M2/4
8bb-
8gg
8ccc
16ccc
16bb-
=8
8gg
16bb-
16gg
4ff
=9
8dd
16cc
16dd
2ff}
==
!!!AGN: Shange. Xin minge
!! enthaelt auch Stilelemente aus Anhui.
!!    Leicht, insbes. ohne Verzierungen arrangiert von einem
!!    beruehmten Paedagogen, der seinen Schuelern bei der Feldarbeit
!!    zuhoerte. Er hat jedoch den Text neu geschrieben. Wichtig als
!!    "zeitgenoessisches" Dokument, weil viele Berufsmusiker erst durch
!!    Kenntnis dieses Liedes die Volksmusik beachteten.
!!!ONB: ESAC (Essen Associative Code) Database: CHINA
!!!AMT: irregular
!!!AIN: vox
!!!EED: Helmut Schaffrath
!!!EEV: 1.0
*-
